X:279
T:Paddy Kelly's
Z: id:dc-reel-259
M:C
L:1/8
K:A Dorian
EG|A2EA eAcA|G2DG dGBG|A2EA FAEA|GABd gdBG|!
EAA2 EAFA|G2DG dGBG|AGEF GABd|gdBG A2:|!
K:A Mixolydian
Bd|eaa^g a2ba|c'aba ageg|GABd gfga|bgag edBd|!
eaa^g a2ba|c'aba agef|gfgb aged|cABG A2:|!

